neru-light-classic/32x32/apps/gnumeric.svg

<?xml version="1.0" encoding="UTF-8" standalone="no"?>
<svg
   xmlns:dc="http://purl.org/dc/elements/1.1/"
   xmlns:cc="http://creativecommons.org/ns#"
   xmlns:rdf="http://www.w3.org/1999/02/22-rdf-syntax-ns#"
   xmlns:svg="http://www.w3.org/2000/svg"
   xmlns="http://www.w3.org/2000/svg"
   xmlns:sodipodi="http://sodipodi.sourceforge.net/DTD/sodipodi-0.dtd"
   xmlns:inkscape="http://www.inkscape.org/namespaces/inkscape"
   height="32"
   width="32"
   version="1"
   id="svg12"
   sodipodi:docname="gnumeric.svg"
   inkscape:version="0.92.1 r">
  <metadata
     id="metadata18">
    <rdf:RDF>
      <cc:Work
         rdf:about="">
        <dc:format>image/svg+xml</dc:format>
        <dc:type
           rdf:resource="http://purl.org/dc/dcmitype/StillImage" />
      </cc:Work>
    </rdf:RDF>
  </metadata>
  <defs
     id="defs16" />
  <sodipodi:namedview
     pagecolor="#ffffff"
     bordercolor="#666666"
     borderopacity="1"
     objecttolerance="10"
     gridtolerance="10"
     guidetolerance="10"
     inkscape:pageopacity="0"
     inkscape:pageshadow="2"
     inkscape:window-width="640"
     inkscape:window-height="480"
     id="namedview14"
     showgrid="false"
     inkscape:zoom="8.9375"
     inkscape:cx="-1.9020984"
     inkscape:cy="21.818182"
     inkscape:current-layer="svg12" />
  <rect
     style="opacity:1;fill:#4bae4f;fill-opacity:1;fill-rule:evenodd;stroke:none;stroke-width:1.03534329;stroke-linecap:round;stroke-linejoin:bevel;stroke-miterlimit:4;stroke-dasharray:none;stroke-dashoffset:0;stroke-opacity:1"
     id="rect4497-3-3"
     width="28.203388"
     height="28.203388"
     x="1.8983059"
     y="1.8983059"
     ry="5.575182" />
  <path
     inkscape:connector-curvature="0"
     style="opacity:1;fill:#b2ffa3;fill-opacity:1;fill-rule:nonzero;stroke:none;stroke-width:10.04599953;stroke-linecap:round;stroke-linejoin:bevel;stroke-miterlimit:4;stroke-dasharray:none;stroke-dashoffset:0;stroke-opacity:1"
     d="m 8.5000001,9.75 v 12.5 H 23.5 V 9.75 Z m 1.25,1.25 H 14.75 v 2.5 h -5 z m 6.2460939,0 h 6.222656 v 2.5 h -6.222656 z m -6.2421877,3.75 h 4.9999997 v 2.5 H 9.7539063 Z M 16,14.75 h 6.222656 v 2.5 H 16 Z M 9.7539063,18.5 H 14.753906 V 21 H 9.7539063 Z M 16,18.5 h 6.222656 V 21 H 16 Z"
     id="rect4486" />
</svg>

<svg xmlns="http://www.w3.org/2000/svg" height="32" width="32" version="1"><rect width="28.203" height="28.203" x="1.898" y="1.898" ry="5.575" fill="#4bae4f" fill-rule="evenodd"/><path d="M8.5 9.75v12.5h15V9.75zM9.75 11h5v2.5h-5zm6.246 0h6.223v2.5h-6.223zm-6.242 3.75h5v2.5h-5zm6.246 0h6.223v2.5H16zM9.754 18.5h5V21h-5zm6.246 0h6.223V21H16z" fill="#b2ffa3"/></svg>
